X: 20
T: OPERA REEL
S: "Community Dances Manual 6", EFDSS, Jack Hamilton ed., 1981 p.11
R: reel
Z: 2010 John Chambers <jc:trillian.mit.edu>
M: 4/4
L: 1/8
K: D
"A1"|: "D"D2D2 FAFA | "D"D2D2 "A7"EDEF | "D"D2D2 FDFA | "G"BdAF "A7"E2E2 :|
"A2"|: "D"d2d2 dAFA | "D"d2d2 "A7"egfe | "D"d2d2 dAFA | "G"BdAF "A7"E2E2 :|
"B1"|: "D"afaf "A7"gege | "D"faed "A7"c2BA | "D"afaf "Em"gege | "A7"faec "D"d2d2 :|
"B2"|: "D"defd "A7"efge | "D"defd "A7"edcA | "D"defd "G"efge | "A7"faec "D"d2d2 :|

%%sep 2 1 500
%%sep 1 1 500

